X: 35494
T: Rubber Band, The
R: slide
M: 12/8
K: Dmajor
E|FGF E2D F3 A3|Bcd A2B d3A3|
def d2B AFA AFA|BAF BAF E3 z2E|
FGF E2D F3 A3|Bcd A2B d3A3|
def d2B AFA AFE|DEF E2D D3 z2D||
|:A2F A2F AFE D3|A2F B2d AGF E3|
A2F A2F AFE D3|dcB AFE F2E D3:|

